X: 1
T: Polsdans etter Konrad H. Evensg\aard
O: Norway
S: handwritten MS of unknown origin
Z: 2008 John Chambers <jc:trillian.mit.edu>
M: 3/4
L: 1/8
K: D
  D>F | "D"(3ABA ^G<A "A7"B>c | "D"d2      f<d "A"e>c | "D"(3ABA "(E7)"^G<A "A7"B>c |1,3 "D"d>A F<E :|2,4 "D"d2 d2 :|
|: z2 | "A"e>f "D"d<e "D7"f>a | "G"(3gag (3fgf "A"e<c | "D"d>e f<g "A"e>c |1,3 "F#m"A4 :|2,4 "D"d2- [d2D2] :|
